X: 157
T: Chicken on the Roof
N:A very special arrangement by SG
M: 2/4
L:1/8
Q:220
K:Dm
|: zA/A/ B/B/ F/F/ | "Dm"A A/A/ B/B/ F/F/ | A A/A/ B/B/ d/d/ | "A7"^c z z2 | z G/G/ A/A/ E/E/ |
 "A7"G G/G/ A/A/ E/E/ |1 G G/G/ A/A/ ^c/c/ | "Dm"B z z2 :|2 "A7"G (AB^c) | "Dm"d4- | d  A^G=G ||
 "Dm"F3 A | f3 e | e2 d2- | d A^G=G | F3 A | e3 d | "A7"^c4- | ^c AA^G |
 G3 A | e3 d | d2 ^c2- | ^c eed | d2 ^c2- | ^c ^cde |1 "Dm"d4| zA^G=G :|2"Dm"d4-|d4|]
